X: 46
T: Wall Street Rag
C: Scott Joplin
%%abc-version 2.0
%%abcx-abcm2ps-target-version 5.9.1 (29 Sep 2008)
%%abc-creator hum2abc beta
%%abcx-conversion-date 2021/07/20 09:00:57
%%abc-copyright 2021 Craig Stuart Sapp
%%abc-edited-by Craig Stuart Sapp
%%abc-edited-by Craig Stuart Sapp
%%abcx-initial-encoding-date 2005/01/23
%%humdrum-veritas 3705993029
%%humdrum-veritas-data 3286895715
%%removed 0's from note length
%%linebreak <none>
%%barnumbers 0
L: 1/8
M: 2/4
N: Derived from wallstreet.krn
Q: "Very Slow March Time" 1/4=72
%%staves {1 2}
V: 1 clef=treble
V: 2 clef=bass
K: C
[V:1] c>A DC/D/ | 
[V:2] C>A, D,C,/D,/ | 
[V:1] EF2G | 
[V:2] E,F,2G, | 
[V:1] ED/E/ F/A_A/ | 
[V:2] E,D,/E,/ F,/A,_A,/ | 
[V:1] G2!accent![gBG] z ]|:  
[V:2] G,2!accent![G,G,,] z ]|:  
[V:1] [E/C/][F/D/][G/E/][A/^D/]- [A/D/][^d/^F/][e/G/][c/E/] | 
[V:2] G,>^F, CG, & C,4 | 
[V:1] dd/e/ d/c/D/F/ & F2-FC | 
[V:2] _A,3A, & C,4 | 
[V:1] [E/C/][F/D/][G/E/][A/^D/]- [A/D/][^d/^F/][e/G/][c/E/] | 
[V:2] G,>^F, CG, & C,4 | 
[V:1] de/d/ c/d/e/G/ & F2-FE | 
[V:2] [_A,3C,3][G,C,] | 
[V:1] ^G/E/B/e/- e/f/e & E>G- GG | 
[V:2] [B,B,,][ED^G,] [E,E,,][D,D,,] | 
[V:1] A/E/c/e/- e/f/e & E>[cA]- [cA][cA] | 
[V:2] [C,C,,][ECA,] [A,A,,][G,G,,] | 
[V:1] e/d/^f/b/-x2 & c>[fd]- [b/f/d/][c'/f/e/][b/f/d/][a/f/c/] | 
[V:2] [^F,^F,,][DCF,] [D,D,,][DCF,] | 
[V:1] [a/=f/B/]g/f/d/ [e/G/F/]d/G/F/ | 
[V:2] [G,G,,][DB,G,] B,,[DB,G,] | 
[V:1] [E/C/][F/D/][G/E/][A/^D/]- [A/D/][^d/^F/][e/G/][c/E/] | 
[V:2] G,>^F, CG, & C,4 | 
[V:1] dd/e/ d/c/D/F/ & F2-FC | 
[V:2] _A,3A, & C,4 | 
[V:1] [E/C/][F/D/][G/E/][A/^D/]- [A/D/][^d/^F/][e/G/][c/E/] | 
[V:2] G,>^F, CG, & C,4 | 
[V:1] dc/d/ cc/d/ & F2-FF | 
[V:2] _A,3A, & C,4 | 
[V:1] e/c/G/A/- [A/C/][a/e/^c/A/][_b/e/c/_B/][a/e/c/A/] & E>^C-x2 | 
[V:2] G,_B,x2 & C,2[A,A,,][G,G,,] | 
[V:1] [e'=c'^fe][d'/c'/f/d/][a/f/c/A/]- [a/f/c/A/][^g/^G/][a/f/A/][c'/f/c/] | 
[V:2] [^F,^F,,][DCF,] [DD,][CC,] | 
[V:1] [e'ge][d'/=f/d/][a'/f'/a/]- [a'/f'/a/][g'/e'/g/][e'/g/e/][d'/f/d/] |[1 
[V:2] [B,B,,][=FB,G,] [G,G,,][FB,G,] | 
[V:1] [c'2e2c2]-[c'/e/c/]G/D/^D/ :|][2 
[V:2] [CC,]G, C,[B,G,] :|]  
[V:1] x3e & [c'2e2c2]-[c'ec][c'/c/][_b/_B/] ]|: 
[V:2] [CC,]G,!tenuto!C,2 ]|:  
[V:1] [afcA][afcA] [c'afc][c'a^fc] | 
[V:2] [F,F,,][FCA,] [F,F,,][^D,^D,,] | 
[V:1] x2ba & [c'2g2c2][^f2c2] | 
[V:2] E,[ECG,] _E,[^F_EC] & [E,2E,,2][_E,2_E,,2] | 
[V:1] a>a a/g/b/a/ & [=f2c2][f2B2] | 
[V:2] D,[=FDC] G,,[FDB,] & [D,2D,,2][G,,2G,,,2] | 
[V:1] a>a a/g/[c'/c/][_b/B/] & [e2c2][ec]e | 
[V:2] C,[ECG,] [E,E,,][C,C,,] & [C,2C,,2]x2 | 
[V:1] [afcA][afcA] [c'afc][c'a^fc] | 
[V:2] [F,F,,][FCA,] [F,F,,][^D,^D,,] | 
[V:1] x2ba & [c'2g2c2][^f2c2] | 
[V:2] E,[ECG,] _E,[^F_EC] & [E,2E,,2][_E,2_E,,2] | 
[V:1] x2^g3/b/ & [a=fc][aec][e2d2] | 
[V:2] x2E,[ED^G,] & [D,D,,][E,E,,][E,2E,,2] | 
[V:1] x2a/g/[c'/c/][_b/_B/] & [a2e2c2][ec]e | 
[V:2] [A,/A,,/]E,/C,/A,,/[C,2C,,2] | 
[V:1] [afcA][afcA] [c'afc][c'a^fc] | 
[V:2] [F,F,,][FCA,] [F,F,,][^D,^D,,] | 
[V:1] x2ba & [c'2g2c2][^f2c2] | 
[V:2] E,[ECG,] _E,[^F_EC] & [E,2E,,2][_E,2_E,,2] | 
[V:1] a>a a/g/b/a/ & [=f2c2][f2B2] | 
[V:2] D,[=FDC] G,,[FDB,] & [D,2D,,2][G,,2G,,,2] | 
[V:1] a>a a/g/[c/C/][d/D/] & [e2c2][ec] z | 
[V:2] C,[ECG,] E,[G,E,] & [C,2C,,2][E,2E,,2] | 
[V:1] [^d2c2A2^D2][^f2c2A2^F2] | 
[V:2] ^F,,/A,,/^F, ^D,/F,/^D | 
[V:1] [a4^d4c4A4] | 
[V:2] ^F/^D/C/A,/ D/C/A,/^F,/ | 
[V:1] [aA][gG] e/de/ & [e2c2][B/G/][B3/F3/] |[1 
[V:2] G,[EC] G,,G, & G,2G,,2 | 
[V:1] [cE][e/E/][f/F/] [^f/^F/][g/G/][c'/e/c/][_b/e/_B/] :|][2 
[V:2] [G,C,] z z [C,C,,] :|]  
[V:1] [c2E2]-[cE] G/^G/ & x3[E_B,] ]|: 
[V:2] G,2-G, z & C,G,,C,,2 ]|:  
[V:1]  [K:F] [A/F/][B/G/][c/A/][A/F/]- [A/F/][A/F/C/][AFD] | 
[V:2]  [K:F] [A,C,][A,F,C,] C,,[F,C,] & F,,2C,,2 | 
[V:1] [A/F/][A/F/C/][A/F/^C/][A/F/D/]- [A/F/D/][AF_E][A/F/D/]- | 
[V:2] F,,[F,C,] C,,[F,C,] & F,,2C,,2 | 
[V:1] [A/F/]G/F/[G/F/]- [G/F/D/][D/F,/][D/G,/][C/A,/]- & D>_D-x2 | 
[V:2] B,,,B,, B,,,B,, | 
[V:1] z/ [a/f/][a/e/][a/d/]- [a/d/] z/ z & [C2A,2]-[C/A,/][d/B/][c/A/][B/G/] | 
[V:2] F,,[A,F,C,] C,,[B,E,C,] & F,,2C,,2 | 
[V:1] [A/F/][B/G/][c/A/][A/F/]- [A/F/][A/F/C/][AFD] | 
[V:2] [A,C,][A,F,C,] C,,[F,C,] & F,,2C,,2 | 
[V:1] [A/F/][A/F/C/][A/F/^C/][A/F/D/]- [A/F/D/][A^D=C][A/E/C/]- | 
[V:2] F,,F, ^F,,^F, & F,,2^F,,2 | 
[V:1] A/G/^F/G/ [=B/G/=F/][eBG][d/B/F/] & [E2C2]x2 | 
[V:2] G,,G, G,,G, & G,,2G,,2 | 
[V:1] dc G^G & [_B2E2][E2B,2] | 
[V:2] C,2[C,2C,,2] | 
[V:1] [A/F/][B/G/][c/A/][A/F/]- [A/F/][A/F/C/][AFD] | 
[V:2] [A,C,][A,F,C,] C,,[F,C,] & F,,2C,,2 | 
[V:1] [A/F/][A/F/C/][A/F/^C/][A/F/D/]- [A/F/D/][AF_E][A/F/D/]- | 
[V:2] F,,[F,C,] C,[A,F,] & F,,2C,2 | 
[V:1] [A/F/]G/F/[G/F/]- [GFD][^GED] & D>D-x2 | 
[V:2] B,,D, [B,B,,][B,B,,] | 
[V:1] z/ [^c/A/][e/c/][a/c/]- [a/c/] z/ z & [A2E2^C2]-[A/E/C/][E/C/][AC] | 
[V:2] A,[A,E,] G,[A,E,] & [A,2A,,2][G,2G,,2] | 
[V:1] [AD][d/c/^F/][_e/c/F/]- [e/c/F/]d/[b/^f/d/][a/f/c/] | 
[V:2] [^F,^F,,][CF,D,] [D,D,,][DCF,] | 
[V:1] [a/=f/]d/f/[g/f/]- [g/f/]a/[gf] & =B>B- BB | 
[V:2] [G,G,,][D=B,G,] [D,D,,][^D,^D,,] | 
[V:1] a/g/e/c'/- c'/b/d/e/ & [ec]>[ec]- [ec]B |[1 
[V:2] [E,E,,][EC_B,] [C,C,,][ECB,] | 
[V:1] x2f/F/G/^G/ & [f2c2A2]-[c/A/]A,/[EB,] :|][2 
[V:2] [F,F,,][E,/E,,/][D,/D,,/][C,2C,,2] :|]  
[V:1] [f2c2A2]-[fcA] !accent!d/^d/ ]|: 
[V:2] [F,F,,]A,,/C,/ [F,F,,]!accent![^F,^F,,] ]|:  
[V:1] e/[d'/c'/b/g/]d/^d/ e/[=d'/c'/b/g/]=d/^d/ | 
[V:2] [G,G,,][ECB,] [C,C,,][ECB,] | 
[V:1] e/[d'c'bg][c'/b/a/]- [c'/b/a/]g/d/e/ | 
[V:2] [G,G,,][ECB,] [CC,][B,B,,] | 
[V:1] f/[d'/c'/a/]d/e/ f/[d'/c'/a/]d/e/ | 
[V:2] [A,A,,][FCA,] [C,C,,][FCA,] | 
[V:1] f/[c'ag][c'/a/g/]- [c'/a/g/]f/e/f/ | 
[V:2] [F,F,,][FCA,] [CC,][FCA,] | 
[V:1] ^f/[_e'/c'/a/]=e/^e/ f/[_e'/c'/a/]=e/[d'/a/f/] | 
[V:2] [A,A,,][DC^F,] [DD,][CC,] | 
[V:1] [d'/b/g/][d'ba][d'/b/a/]- [d'/b/a/]g/a/b/ | 
[V:2] [B,B,,][DB,G,] [G,G,,][DB,G,] | 
[V:1] =b/[e'/d'/]^g/a/ b/[e'/d'/]g/[e'/d'/b/] | 
[V:2] [^G,^G,,][ED=B,] [E,E,,][EDG,] | 
[V:1] [e'2c'2a2][c'^f^dc]=d/^d/ | 
[V:2] [A,A,,][ECA,] [A,A,,][^F,^F,,] | 
[V:1] e/[d'/c'/b/g/]d/^d/ e/[d'/=c'/b/g/]=d/^d/ | 
[V:2] [G,G,,][ECB,] [C,C,,][ECB,] | 
[V:1] e/[d'c'bg][c'/b/a/]- [c'/b/a/]g/d/e/ | 
[V:2] [G,G,,][ECB,] [CC,][B,B,,] | 
[V:1] f/[d'/c'/a/]d/e/ f/[d'/c'/a/]d/e/ | 
[V:2] [A,A,,][FCA,] [C,C,,][FCA,] | 
[V:1] f/[c'ag][c'/a/g/]- [c'/a/g/]f/e/f/ | 
[V:2] [F,F,,][FCA,] [CC,][FCA,] | 
[V:1] ^f/[_e'/c'/a/]=e/^e/ f/[_e'/c'/a/]=e/[d'/a/f/] | 
[V:2] [A,A,,][DC^F,] [DD,][CC,] | 
[V:1] [d'/b/g/][d'ba][d'/b/a/]- [d'/b/a/][d'/b/g/]!accent![f'=b^g] | 
[V:2] [B,B,,][DB,G,] [DD,]!accent![_D_D,] | 
[V:1] !accent![f'/c'/]d'/c'/a/ a/ge'/ & a2[e/c/][e3/B3/] |[1 
[V:2] !accent![CC,][FCA,] [C,C,,][ECB,] | 
[V:1] [f2c2A2]-[fcA]!accent!d/^d/ :|][2 
[V:2] [F,F,,]A,,/C,/ !accent![F,F,,][^F,^F,,] :|]  
[V:1] [f2c2A2][c'af] z |]  
[V:2] [F,F,,]C, !accent!F,, z |]  


